icons/op-bold-24.svg

<svg width="24" height="24" viewBox="0 0 24 24" fill="none" xmlns="http://www.w3.org/2000/svg">
<path d="M6 20V4H11.6939C12.7959 4 13.6837 4.09524 14.449 4.28571C15.1837 4.50794 15.7959 4.79365 16.2857 5.1746C16.7449 5.52381 17.1122 6 17.3265 6.50794C17.5408 7.04762 17.6327 7.65079 17.6327 8.31746C17.6327 8.66667 17.602 9.01587 17.4796 9.33333C17.3878 9.68254 17.2347 10 17.0204 10.2857C16.8061 10.5714 16.5306 10.8254 16.1939 11.0794C15.8571 11.3016 15.4592 11.5238 14.9694 11.6825C16.0102 11.9365 16.7755 12.381 17.2653 12.9524C17.7551 13.5238 18 14.2857 18 15.1746C18 15.873 17.8776 16.5079 17.6327 17.0794C17.3571 17.6825 16.9898 18.1905 16.5 18.6349C16.0102 19.0476 15.398 19.3968 14.6633 19.6508C13.9592 19.9048 13.1327 20 12.1837 20H6ZM9.58163 10.6667H11.4796C11.8469 10.6667 12.2143 10.6349 12.551 10.6032C12.8571 10.5397 13.1327 10.4127 13.3776 10.2857C13.5918 10.127 13.7755 9.93651 13.8673 9.68254C13.9898 9.42857 14.051 9.14286 14.051 8.73016C14.051 8.38095 14.0204 8.06349 13.9286 7.80952C13.8367 7.55556 13.6837 7.36508 13.5 7.20635C13.2857 7.07937 13.0408 6.95238 12.7653 6.88889C12.4592 6.8254 12.1224 6.79365 11.6939 6.79365H9.58163V10.6667ZM9.58163 17.2064H12.1224C12.5816 17.2064 12.9796 17.1429 13.2857 17.0159C13.5612 16.8889 13.8061 16.7302 13.9898 16.5397C14.1429 16.3492 14.2653 16.127 14.3265 15.873C14.3878 15.619 14.4184 15.3651 14.4184 15.1111C14.4184 14.8254 14.3878 14.5397 14.2959 14.3175C14.2347 14.0952 14.1122 13.873 13.9286 13.7143C13.7449 13.5556 13.5 13.4286 13.1939 13.3333C12.9184 13.2698 12.551 13.2063 12.0918 13.2063H9.58163V17.2064Z" fill="black"/>
</svg>

<svg xmlns="http://www.w3.org/2000/svg" width="24" height="24" viewBox="0 0 24 24"><path d="M6 20V4h5.694c1.102 0 1.99.095 2.755.286.735.222 1.347.508 1.837.889.459.349.826.825 1.04 1.333.215.54.307 1.143.307 1.809 0 .35-.031.699-.153 1.016a2.72 2.72 0 0 1-.46.953 4.076 4.076 0 0 1-.826.793 4.942 4.942 0 0 1-1.225.603c1.041.255 1.807.699 2.296 1.27.49.572.735 1.334.735 2.223 0 .698-.122 1.333-.367 1.904a4.672 4.672 0 0 1-1.133 1.556 5.735 5.735 0 0 1-1.837 1.016c-.704.254-1.53.349-2.479.349H6Zm3.582-9.333h1.898c.367 0 .734-.032 1.071-.064.306-.063.582-.19.827-.317.214-.159.397-.349.489-.603.123-.254.184-.54.184-.953 0-.349-.031-.667-.122-.92a1.43 1.43 0 0 0-.429-.604 2.577 2.577 0 0 0-.735-.317 5.15 5.15 0 0 0-1.071-.095H9.582v3.873Zm0 6.539h2.54c.46 0 .858-.063 1.164-.19a2.35 2.35 0 0 0 .704-.476c.153-.191.275-.413.336-.667.062-.254.092-.508.092-.762 0-.286-.03-.571-.122-.793a1.237 1.237 0 0 0-.367-.604 2.065 2.065 0 0 0-.735-.381 4.858 4.858 0 0 0-1.102-.127h-2.51v4Z"/></svg>
